outputs/icons/image/rotate_right_round.svg

<svg width="1200" height="1200" viewBox="0 0 1200 1200" fill="none" xmlns="http://www.w3.org/2000/svg"><g clip-path="url(#clip0_755_1644)"><path d="M741.5 241.511L635 135.011C604 104.011 550 126.011 550 170.511V203.511C353 228.01 200 396.011 200 600.01C200 782.01 321.5 935.51 488.5 984.01C519.5 993.01 550 968.01 550 936.01V934.51C550 913.01 536.5 893.51 516 887.51C391 851.51 300 736.51 300 600.01C300 451.511 408 328.511 550 304.511V381.01C550 425.511 603.5 447.511 635 416.511L741.5 312.511C761.5 293.511 761.5 261.511 741.5 241.511ZM983.5 488.011C975.5 460.511 964.5 434.011 950.5 408.511C935 380.011 895.5 375.51 872.5 398.51L872 399.011C856.5 414.511 853 438.011 863.5 457.01C873.5 475.511 881.5 495.011 887.5 515.01C893.5 536.01 913 550.01 934.5 550.01H935.5C968 550.01 993 519.01 983.5 488.011ZM650 934.01V935.01C650 967.51 681 992.01 712 983.01C739.5 975.01 766 964.01 791.5 950.01C820 934.51 824.5 895.01 801.5 872.01L800.5 871.01C785 855.51 761.5 852.01 742.5 862.51C724 873.01 704.5 881.01 684.5 887.01C664 893.01 650 912.51 650 934.01ZM872 801.51C895 824.51 934.5 820.01 950 791.51C964 766.01 975 739.51 983.5 712.01C992.5 681.01 968 650.01 935.5 650.01H934.5C912.5 650.01 893.5 664.01 887.5 685.01C881.5 705.01 873.5 724.51 863.5 743.51C853 762.51 857 786.51 872 801.51Z" fill="black"/></g><defs><clipPath id="clip0_755_1644"><path width="24" fill="white" d="M0 0H1200V1200H0V0z"/></clipPath></defs></svg>

<svg xmlns="http://www.w3.org/2000/svg" width="1200" height="1200" fill="none"><g clip-path="url(#a)"><path fill="#000" d="M741.5 241.511 635 135.011c-31-31-85-9-85 35.5v33c-197 24.499-350 192.5-350 396.499 0 182 121.5 335.5 288.5 384 31 9 61.5-16 61.5-48v-1.5c0-21.5-13.5-41-34-47-125-36-216-151-216-287.5 0-148.499 108-271.499 250-295.499v76.499c0 44.501 53.5 66.501 85 35.501l106.5-104c20-19 20-51 0-71m242 246.5q-12-41.25-33-79.5c-15.5-28.5-55-33.001-78-10.001l-.5.501c-15.5 15.5-19 39-8.5 57.999 10 18.501 18 38.001 24 58 6 21 25.5 35 47 35h1c32.5 0 57.5-31 48-61.999M650 934.01v1c0 32.5 31 57 62 48q41.25-12 79.5-33c28.5-15.5 33-55 10-78l-1-1c-15.5-15.5-39-19-58-8.5-18.5 10.5-38 18.5-58 24.5-20.5 6-34.5 25.5-34.5 47m222-132.5c23 23 62.5 18.5 78-10 14-25.5 25-52 33.5-79.5 9-31-15.5-62-48-62h-1c-22 0-41 14-47 35q-9 30-24 58.5c-10.5 19-6.5 43 8.5 58"/></g><defs><clipPath id="a"><path fill="#fff" d="M0 0h1200v1200H0z"/></clipPath></defs></svg>
